packages/kaspersky-hexa-ui-icons/src/iconsSVGs/16/Thread.svg

<svg width="16" height="16" viewBox="0 0 16 16" fill="none" xmlns="http://www.w3.org/2000/svg">
<path fill-rule="evenodd" clip-rule="evenodd" d="M2.8 1.21875C1.80589 1.21875 1 2.02464 1 3.01875V3.34589C1 4.34 1.80589 5.14589 2.8 5.14589H3.65249V12.7764C3.65249 13.1354 3.94351 13.4264 4.30249 13.4264H6.30896C6.50701 14.2053 7.213 14.7815 8.05354 14.7815H13.2C14.1941 14.7815 15 13.9756 15 12.9815V12.6543C15 11.6602 14.1941 10.8543 13.2 10.8543H8.05354C7.24312 10.8543 6.5578 11.3899 6.33219 12.1264H4.95249V8.64998H6.32002C6.53221 9.40781 7.22797 9.9636 8.05354 9.9636H13.2C14.1941 9.9636 15 9.15771 15 8.16359V7.83645C15 6.84234 14.1941 6.03645 13.2 6.03645H8.05354C7.228 6.03645 6.53226 6.5922 6.32005 7.34998H4.95249V5.14589H7.9465C8.94061 5.14589 9.7465 4.34 9.7465 3.34589V3.01875C9.7465 2.02464 8.94061 1.21875 7.94649 1.21875H2.8ZM7.94649 2.51875H2.8C2.52386 2.51875 2.3 2.74261 2.3 3.01875V3.34589C2.3 3.62203 2.52386 3.84589 2.8 3.84589H7.9465C8.22264 3.84589 8.4465 3.62203 8.4465 3.34589V3.01875C8.4465 2.74261 8.22264 2.51875 7.94649 2.51875ZM13.2 7.33645H8.05354C7.7774 7.33645 7.55354 7.56031 7.55354 7.83645V8.1636C7.55354 8.43974 7.7774 8.6636 8.05354 8.6636H13.2C13.4762 8.6636 13.7 8.43974 13.7 8.16359V7.83645C13.7 7.56031 13.4762 7.33645 13.2 7.33645ZM8.05354 12.1543H13.2C13.4762 12.1543 13.7 12.3782 13.7 12.6543V12.9815C13.7 13.2576 13.4762 13.4815 13.2 13.4815H8.05354C7.7774 13.4815 7.55354 13.2576 7.55354 12.9815V12.6543C7.55354 12.3782 7.7774 12.1543 8.05354 12.1543Z" fill="black"/>
</svg>

<svg xmlns="http://www.w3.org/2000/svg" width="16" height="16" fill="none" viewBox="0 0 16 16"><path fill="#000" fill-rule="evenodd" d="M2.8 1.2188c-.9941 0-1.8.8058-1.8 1.8v.327c0 .9942.8059 1.8 1.8 1.8h.8525v7.6306c0 .359.291.65.65.65H6.309c.198.7789.904 1.3551 1.7445 1.3551H13.2c.9941 0 1.8-.8059 1.8-1.8v-.3272c0-.9941-.8059-1.8-1.8-1.8H8.0535c-.8104 0-1.4957.5356-1.7213 1.2721H4.9525V8.65H6.32c.2122.7578.908 1.3136 1.7335 1.3136H13.2c.9941 0 1.8-.8059 1.8-1.8v-.3272c0-.994-.8059-1.8-1.8-1.8H8.0535c-.8255 0-1.5212.5558-1.7334 1.3136H4.9525V5.1459h2.994c.9941 0 1.8-.8059 1.8-1.8v-.3272c0-.994-.8059-1.8-1.8-1.8zm5.1465 1.3H2.8a.5.5 0 0 0-.5.5v.327a.5.5 0 0 0 .5.5h5.1465a.5.5 0 0 0 .5-.5v-.327a.5.5 0 0 0-.5-.5M13.2 7.3365H8.0535a.5.5 0 0 0-.5.5v.3271a.5.5 0 0 0 .5.5H13.2a.5.5 0 0 0 .5-.5v-.3272a.5.5 0 0 0-.5-.5m-5.1465 4.8178H13.2a.5.5 0 0 1 .5.5v.3272a.5.5 0 0 1-.5.5H8.0535a.5.5 0 0 1-.5-.5v-.3272a.5.5 0 0 1 .5-.5"/></svg>
